icons/sidebar-collapse-24.svg

<svg width="24" height="24" viewBox="0 0 24 24" fill="none" xmlns="http://www.w3.org/2000/svg">
<path fill-rule="evenodd" clip-rule="evenodd" d="M7.21968 14.4697L9.68935 12L7.21968 9.53033C6.92678 9.23743 6.92678 8.76256 7.21968 8.46967C7.51257 8.17677 7.98744 8.17677 8.28034 8.46967L11.2803 11.4697C11.5732 11.7626 11.5732 12.2374 11.2803 12.5303L8.28034 15.5303C7.98745 15.8232 7.51257 15.8232 7.21968 15.5303C6.92678 15.2374 6.92678 14.7626 7.21968 14.4697Z" fill="black"/>
<path fill-rule="evenodd" clip-rule="evenodd" d="M3.75 2C2.7835 2 2 2.7835 2 3.75V20.25C2 21.2165 2.7835 22 3.75 22H20.25C21.2165 22 22 21.2165 22 20.25V3.75C22 2.7835 21.2165 2 20.25 2H3.75ZM3.5 3.75C3.5 3.61193 3.61193 3.5 3.75 3.5H15V20.5H3.75C3.61193 20.5 3.5 20.3881 3.5 20.25V3.75ZM16.5 20.5V3.5H20.25C20.3881 3.5 20.5 3.61193 20.5 3.75V20.25C20.5 20.3881 20.3881 20.5 20.25 20.5H16.5Z" fill="black"/>
</svg>

<svg xmlns="http://www.w3.org/2000/svg" width="24" height="24" viewBox="0 0 24 24"><path fill-rule="evenodd" d="M7.22 14.47L9.69 12 7.22 9.53a.75.75 0 111.06-1.06l3 3a.75.75 0 010 1.06l-3 3a.75.75 0 01-1.06-1.06z"/><path fill-rule="evenodd" d="M3.75 2A1.75 1.75 0 002 3.75v16.5c0 .966.784 1.75 1.75 1.75h16.5A1.75 1.75 0 0022 20.25V3.75A1.75 1.75 0 0020.25 2H3.75zM3.5 3.75a.25.25 0 01.25-.25H15v17H3.75a.25.25 0 01-.25-.25V3.75zm13 16.75v-17h3.75a.25.25 0 01.25.25v16.5a.25.25 0 01-.25.25H16.5z"/></svg>
